static/assets/template/assets/img/icons/essential/detailed/Save.svg

<svg height="136" viewBox="0 0 136 136" width="136" xmlns="http://www.w3.org/2000/svg"><g fill="none" fill-rule="evenodd" transform="translate(1 1)"><path d="m133.2 41.4v80.5c0 6.1-4.9 11-11 11h-110.3c-6.1 0-11-4.9-11-11v-110.3c0-6.1 4.9-11 11-11h81.5c3.9 0 7.6 1.5 10.4 4.3l24.4 24.4c3.2 3.2 5 7.6 5 12.1z" fill-rule="nonzero"/><path d="m133.2 48v76.2c0 5.8-4.7 10.5-10.6 10.5h-105.6c-5.8 0-10.6-4.7-10.6-10.5v-104.3c0-5.8 4.7-10.5 10.6-10.5h78.1c3.7 0 7.3 1.5 9.9 4.1l23.4 23.1c3.1 2.9 4.8 7.1 4.8 11.4z" fill-rule="nonzero"/><path d="m14.5 133v-66.4h106v66.4" fill-rule="nonzero"/><g stroke-linecap="round" stroke-linejoin="round" stroke-width="3"><path d="m36.3.6h57.1c3.9 0 7.6 1.5 10.4 4.3l24.4 24.4c3.2 3.2 5 7.6 5 12.1v80.5c0 6.1-4.9 11-11 11h-110.3c-6.1 0-11-4.9-11-11v-110.3c0-6.1 4.9-11 11-11h2.6"/><path d="m27.3.6h.8"/><path d="m100.9 12v37.7h-86.4v-49.1"/><path d="m61.7 66.6h58.8v66.4"/><path d="m38.8 66.6h1.4"/><path d="m14.5 133v-66.4h11.4"/><path d="m29.5 86.1h77.4"/><path d="m29.5 100.2h77.4"/><path d="m29.5 114.3h40.6"/><path d="m77.7 12.4h10.5v26.8h-10.5z" fill-rule="nonzero"/></g></g></svg>

<?xml version="1.0" encoding="UTF-8"?>
<svg width="136px" height="136px" viewBox="0 0 136 136" version="1.1" xmlns="http://www.w3.org/2000/svg" xmlns:xlink="http://www.w3.org/1999/xlink">
    <!-- Generator: Sketch 51.2 (57519) - http://www.bohemiancoding.com/sketch -->
    <title>Save</title>
    <desc>Created with Sketch.</desc>
    <defs></defs>
    <g id="Page-1" stroke="none" stroke-width="1" fill="none" fill-rule="evenodd">
        <g id="Save" transform="translate(1.000000, 1.000000)">
            <path d="M133.2,41.4 L133.2,121.9 C133.2,128 128.3,132.9 122.2,132.9 L11.9,132.9 C5.8,132.9 0.9,128 0.9,121.9 L0.9,11.6 C0.9,5.5 5.8,0.6 11.9,0.6 L93.4,0.6 C97.3,0.6 101,2.1 103.8,4.9 L128.2,29.3 C131.4,32.5 133.2,36.9 133.2,41.4 Z" id="Shape" class="fill-neutral" fill-rule="nonzero"></path>
            <path d="M133.2,48 L133.2,124.2 C133.2,130 128.5,134.7 122.6,134.7 L17,134.7 C11.2,134.7 6.4,130 6.4,124.2 L6.4,19.9 C6.4,14.1 11.1,9.4 17,9.4 L95.1,9.4 C98.8,9.4 102.4,10.9 105,13.5 L128.4,36.6 C131.5,39.5 133.2,43.7 133.2,48 Z" id="Shape" class="fill-primary-100" fill-rule="nonzero"></path>
            <polyline id="Shape" class="fill-neutral" fill-rule="nonzero" points="14.5 133 14.5 66.6 120.5 66.6 120.5 133"></polyline>
            <path d="M36.3,0.6 L93.4,0.6 C97.3,0.6 101,2.1 103.8,4.9 L128.2,29.3 C131.4,32.5 133.2,36.9 133.2,41.4 L133.2,121.9 C133.2,128 128.3,132.9 122.2,132.9 L11.9,132.9 C5.8,132.9 0.9,128 0.9,121.9 L0.9,11.6 C0.9,5.5 5.8,0.6 11.9,0.6 L14.5,0.6" id="Shape" class="stroke-primary" stroke-width="3" stroke-linecap="round" stroke-linejoin="round"></path>
            <path d="M27.3,0.6 L28.1,0.6" id="Shape" class="stroke-primary" stroke-width="3" stroke-linecap="round" stroke-linejoin="round"></path>
            <polyline id="Shape" class="stroke-primary" stroke-width="3" stroke-linecap="round" stroke-linejoin="round" points="100.9 12 100.9 49.7 14.5 49.7 14.5 0.6"></polyline>
            <polyline id="Shape" class="stroke-primary" stroke-width="3" stroke-linecap="round" stroke-linejoin="round" points="61.7 66.6 120.5 66.6 120.5 133"></polyline>
            <path d="M38.8,66.6 L40.2,66.6" id="Shape" class="stroke-primary" stroke-width="3" stroke-linecap="round" stroke-linejoin="round"></path>
            <polyline id="Shape" class="stroke-primary" stroke-width="3" stroke-linecap="round" stroke-linejoin="round" points="14.5 133 14.5 66.6 25.9 66.6"></polyline>
            <path d="M29.5,86.1 L106.9,86.1" id="Shape" class="stroke-primary" stroke-width="3" stroke-linecap="round" stroke-linejoin="round"></path>
            <path d="M29.5,100.2 L106.9,100.2" id="Shape" class="stroke-primary" stroke-width="3" stroke-linecap="round" stroke-linejoin="round"></path>
            <path d="M29.5,114.3 L70.1,114.3" id="Shape" class="stroke-primary" stroke-width="3" stroke-linecap="round" stroke-linejoin="round"></path>
            <rect id="Rectangle-path" stroke-width="3" class="stroke-primary fill-primary-400" fill-rule="nonzero" stroke-linecap="round" stroke-linejoin="round" x="77.7" y="12.4" width="10.5" height="26.8"></rect>
        </g>
    </g>
</svg>
